apps/24/pidgin.svg

<?xml version="1.0" encoding="UTF-8" standalone="no"?>
<!-- Created with Inkscape (http://www.inkscape.org/) -->
<svg
   xmlns:svg="http://www.w3.org/2000/svg"
   xmlns="http://www.w3.org/2000/svg"
   xmlns:xlink="http://www.w3.org/1999/xlink"
   version="1.0"
   width="24"
   height="24"
   id="svg2">
  <defs
     id="defs4">
    <linearGradient
       id="linearGradient4588">
      <stop
         id="stop4591"
         style="stop-color:#000000;stop-opacity:0.3255814"
         offset="0" />
      <stop
         id="stop4590"
         style="stop-color:#000000;stop-opacity:0.19215687"
         offset="0.5" />
      <stop
         id="stop4589"
         style="stop-color:#000000;stop-opacity:0"
         offset="1" />
    </linearGradient>
    <radialGradient
       cx="6.702713"
       cy="73.615715"
       r="7.228416"
       fx="6.702713"
       fy="73.615715"
       id="radialGradient3351"
       xlink:href="#linearGradient4588"
       gradientUnits="userSpaceOnUse"
       gradientTransform="matrix(1.6248935,0,0,0.3559079,1.108806,-4.7730656)" />
    <linearGradient
       id="linearGradient3332-412-419">
      <stop
         id="stop2554"
         style="stop-color:#611358;stop-opacity:1"
         offset="0" />
      <stop
         id="stop2556"
         style="stop-color:#a1619b;stop-opacity:1"
         offset="1" />
    </linearGradient>
    <linearGradient
       x1="18.530535"
       y1="24.150793"
       x2="18.530535"
       y2="-0.079317272"
       id="linearGradient3348"
       xlink:href="#linearGradient3332-412-419"
       gradientUnits="userSpaceOnUse" />
    <linearGradient
       id="linearGradient3242-593-605">
      <stop
         id="stop2544"
         style="stop-color:#d196bf;stop-opacity:1"
         offset="0" />
      <stop
         id="stop2546"
         style="stop-color:#bb70b6;stop-opacity:1"
         offset="0.26238" />
      <stop
         id="stop2548"
         style="stop-color:#954a9a;stop-opacity:1"
         offset="0.66093999" />
      <stop
         id="stop2550"
         style="stop-color:#6c3b77;stop-opacity:1"
         offset="1" />
    </linearGradient>
    <radialGradient
       cx="10.571148"
       cy="0.7647422"
       r="11.508719"
       fx="10.571148"
       fy="0.7647422"
       id="radialGradient3346"
       xlink:href="#linearGradient3242-593-605"
       gradientUnits="userSpaceOnUse"
       gradientTransform="matrix(-1.7947178e-8,1.7575918,-1.5422016,-1.5747778e-8,11.750535,-16.821504)" />
    <linearGradient
       id="linearGradient4593">
      <stop
         id="stop12409"
         style="stop-color:#ffffff;stop-opacity:0.70200002"
         offset="0" />
      <stop
         id="stop12411"
         style="stop-color:#ffffff;stop-opacity:0"
         offset="1" />
    </linearGradient>
    <linearGradient
       x1="27.906723"
       y1="7.549542"
       x2="24.774496"
       y2="39.399513"
       id="linearGradient3343"
       xlink:href="#linearGradient4593"
       gradientUnits="userSpaceOnUse"
       gradientTransform="matrix(0.510074,-4.6449072e-2,5.0162281e-2,0.5555587,-1.305188,-0.2387709)" />
  </defs>
  <g
     id="layer1">
    <path
       d="M 23.745406,21.42735 C 23.745406,22.848185 18.486808,24 12,24 C 5.513192,24 0.254595,22.848185 0.254595,21.42735 C 0.254595,20.006514 5.513192,18.854699 12,18.854699 C 18.486808,18.854699 23.745406,20.006514 23.745406,21.42735 z"
       id="path3302"
       style="opacity:0.4;fill:url(#radialGradient3351);fill-opacity:1;fill-rule:nonzero;stroke:none;stroke-width:0.71986049;stroke-linecap:butt;stroke-linejoin:miter;marker:none;marker-start:none;marker-mid:none;marker-end:none;stroke-miterlimit:0;stroke-dasharray:none;stroke-dashoffset:0;stroke-opacity:1;visibility:visible;display:inline;overflow:visible" />
    <path
       d="M 10.440348,2.3954884 C 4.804251,3.2251954 0.633881,7.1026954 1.012805,11.301 C 1.258174,14.019574 3.347855,16.257193 6.336181,17.437791 L 5.088812,22.291039 L 10.60708,18.306012 L 10.645229,18.302537 C 11.326223,18.335038 12.010377,18.345812 12.720333,18.281136 C 18.778623,17.729235 23.384738,13.703942 22.987176,9.299165 C 22.589616,4.8943874 17.337937,1.7671274 11.279647,2.3190294 C 10.995665,2.3448994 10.717534,2.3546824 10.440348,2.3954884 z"
       id="path3304"
       style="fill:url(#radialGradient3346);fill-opacity:1;fill-rule:evenodd;stroke:url(#linearGradient3348);stroke-width:0.99525028;stroke-linecap:butt;stroke-linejoin:round;marker:none;marker-start:none;marker-mid:none;marker-end:none;stroke-miterlimit:4;stroke-dasharray:none;stroke-dashoffset:0;stroke-opacity:1;visibility:visible;display:inline;overflow:visible" />
    <path
       d="M 10.655557,3.4062906 C 5.92063,4.094606 1.745653,7.1581206 2.07496,11.306254 C 2.296144,14.092425 4.892722,15.983071 7.593216,16.861998 L 6.60203,19.998532 L 10.296558,17.375419 C 10.868351,17.400214 11.957524,17.444437 12.553868,17.390131 C 17.062895,16.979524 22.545453,13.579381 22.023973,9.438994 C 21.496,5.2470647 16.495452,2.8516768 11.360544,3.3420917 C 11.122107,3.3648639 10.888422,3.3724404 10.655557,3.4062906 z"
       id="path6179"
       style="opacity:0.4;fill:none;fill-opacity:1;fill-rule:evenodd;stroke:url(#linearGradient3343);stroke-width:0.99525028;stroke-linecap:butt;stroke-linejoin:miter;marker:none;marker-start:none;marker-mid:none;marker-end:none;stroke-miterlimit:4;stroke-dasharray:none;stroke-dashoffset:0;stroke-opacity:1;visibility:visible;display:inline;overflow:visible" />
    <path
       d="M 12.09375,4.8750004 C 11.841156,4.8388862 11.559922,4.8974488 11.375,5.0000004 C 11.190078,5.102552 11.156424,5.2163452 11.15625,5.2187504 C 11.156499,5.2291656 11.156499,5.2395852 11.15625,5.2500004 C 11.154473,5.2637858 11.151879,5.2716302 11.15625,5.3125004 C 11.654535,7.5262627 11.829164,9.689312 12.28125,11.78125 C 12.511983,11.769574 12.640238,11.761708 12.875,11.75 C 12.839149,9.684106 12.68618,7.6086523 12.71875,5.4687504 C 12.716503,5.4375408 12.716503,5.40621 12.71875,5.3750004 C 12.738579,5.2460159 12.638434,4.9262929 12.125,4.8750004 C 12.114585,4.8752497 12.104165,4.8752497 12.09375,4.8750004 z M 13.125,14 C 12.698028,13.953048 12.263067,14.074952 12.03125,14.28125 C 12.020835,14.281499 12.010415,14.281499 12,14.28125 C 11.726965,14.499721 11.625733,14.778647 11.65625,15 C 11.657248,15.020821 11.657248,15.041679 11.65625,15.0625 C 11.670827,15.29099 11.871364,15.56094 12.25,15.75 C 12.628636,15.93906 13.120154,15.977329 13.5,15.84375 C 13.510415,15.843501 13.520835,15.843501 13.53125,15.84375 C 13.903523,15.739734 14.153507,15.505206 14.25,15.25 C 14.346493,14.994794 14.315828,14.727856 14.125,14.5 C 14.114234,14.489939 14.103811,14.479516 14.09375,14.46875 C 13.921286,14.234401 13.552518,14.047012 13.125,14 z"
       id="path3255"
       style="font-size:62.4582634px;font-style:normal;font-variant:normal;font-weight:normal;font-stretch:normal;text-align:start;line-height:125%;writing-mode:lr-tb;text-anchor:start;fill:#ffffff;fill-opacity:1;stroke:none;stroke-width:1.00079775;stroke-linecap:round;stroke-linejoin:round;stroke-miterlimit:4;stroke-dasharray:none;stroke-opacity:1;font-family:Georgia" />
  </g>
</svg>

<?xml version="1.0" encoding="UTF-8" standalone="no"?>
<!-- Created with Inkscape (http://www.inkscape.org/) -->

<svg
   xmlns:svg="http://www.w3.org/2000/svg"
   xmlns="http://www.w3.org/2000/svg"
   xmlns:xlink="http://www.w3.org/1999/xlink"
   version="1.0"
   width="24"
   height="24"
   id="svg2">
  <defs
     id="defs4">
    <linearGradient
       id="linearGradient4588">
      <stop
         id="stop4591"
         style="stop-color:black;stop-opacity:0.3255814"
         offset="0" />
      <stop
         id="stop4590"
         style="stop-color:black;stop-opacity:0.19215687"
         offset="0.5" />
      <stop
         id="stop4589"
         style="stop-color:black;stop-opacity:0"
         offset="1" />
    </linearGradient>
    <radialGradient
       cx="6.702713"
       cy="73.615715"
       r="7.228416"
       fx="6.702713"
       fy="73.615715"
       id="radialGradient3351"
       xlink:href="#linearGradient4588"
       gradientUnits="userSpaceOnUse"
       gradientTransform="matrix(1.6248935,0,0,0.3559079,1.108806,-4.7730656)" />
    <linearGradient
       id="linearGradient3332-412-419">
      <stop
         id="stop2554"
         style="stop-color:#611358;stop-opacity:1"
         offset="0" />
      <stop
         id="stop2556"
         style="stop-color:#a1619b;stop-opacity:1"
         offset="1" />
    </linearGradient>
    <linearGradient
       x1="18.530535"
       y1="24.150793"
       x2="18.530535"
       y2="-0.079317272"
       id="linearGradient3348"
       xlink:href="#linearGradient3332-412-419"
       gradientUnits="userSpaceOnUse" />
    <linearGradient
       id="linearGradient3242-593-605">
      <stop
         id="stop2544"
         style="stop-color:#d196bf;stop-opacity:1"
         offset="0" />
      <stop
         id="stop2546"
         style="stop-color:#bb70b6;stop-opacity:1"
         offset="0.26238" />
      <stop
         id="stop2548"
         style="stop-color:#954a9a;stop-opacity:1"
         offset="0.66093999" />
      <stop
         id="stop2550"
         style="stop-color:#6c3b77;stop-opacity:1"
         offset="1" />
    </linearGradient>
    <radialGradient
       cx="10.571148"
       cy="0.7647422"
       r="11.508719"
       fx="10.571148"
       fy="0.7647422"
       id="radialGradient3346"
       xlink:href="#linearGradient3242-593-605"
       gradientUnits="userSpaceOnUse"
       gradientTransform="matrix(-1.7947178e-8,1.7575918,-1.5422016,-1.5747778e-8,11.750535,-16.821504)" />
    <linearGradient
       id="linearGradient4593">
      <stop
         id="stop12409"
         style="stop-color:white;stop-opacity:0.70200002"
         offset="0" />
      <stop
         id="stop12411"
         style="stop-color:white;stop-opacity:0"
         offset="1" />
    </linearGradient>
    <linearGradient
       x1="27.906723"
       y1="7.549542"
       x2="24.774496"
       y2="39.399513"
       id="linearGradient3343"
       xlink:href="#linearGradient4593"
       gradientUnits="userSpaceOnUse"
       gradientTransform="matrix(0.510074,-0.04644907,0.05016228,0.5555587,-1.305188,-0.2387709)" />
  </defs>
  <g
     id="layer1">
    <path
       d="M 23.745406,21.42735 C 23.745406,22.848185 18.486808,24 12,24 5.513192,24 0.254595,22.848185 0.254595,21.42735 c 0,-1.420836 5.258597,-2.572651 11.745405,-2.572651 6.486808,0 11.745406,1.151815 11.745406,2.572651 z"
       id="path3302"
       style="opacity:0.4;fill:url(#radialGradient3351);fill-opacity:1;fill-rule:nonzero;stroke:none;stroke-width:0.71986049;marker:none;visibility:visible;display:inline;overflow:visible" />
    <path
       d="M 10.440348,2.3954884 C 4.804251,3.2251954 0.633881,7.1026954 1.012805,11.301 c 0.245369,2.718574 2.33505,4.956193 5.323376,6.136791 l -1.247369,4.853248 5.518268,-3.985027 0.03815,-0.0035 c 0.680994,0.0325 1.365148,0.04327 2.075104,-0.0214 6.05829,-0.551901 10.664405,-4.577194 10.266843,-8.981971 -0.39756,-4.4047776 -5.649239,-7.5320376 -11.707529,-6.9801356 -0.283982,0.02587 -0.562113,0.035653 -0.839299,0.076459 z"
       id="path3304"
       style="fill:url(#radialGradient3346);fill-opacity:1;fill-rule:evenodd;stroke:url(#linearGradient3348);stroke-width:0.99525028;stroke-linecap:butt;stroke-linejoin:round;stroke-miterlimit:4;stroke-opacity:1;stroke-dasharray:none;stroke-dashoffset:0;marker:none;visibility:visible;display:inline;overflow:visible" />
    <path
       d="M 10.655557,3.4062906 C 5.92063,4.094606 1.745653,7.1581206 2.07496,11.306254 c 0.221184,2.786171 2.817762,4.676817 5.518256,5.555744 l -0.991186,3.136534 3.694528,-2.623113 c 0.571793,0.02479 1.660966,0.06902 2.25731,0.01471 4.509027,-0.410607 9.991585,-3.81075 9.470105,-7.951137 C 21.496,5.2470647 16.495452,2.8516768 11.360544,3.3420917 c -0.238437,0.022772 -0.472122,0.030349 -0.704987,0.064199 z"
       id="path6179"
       style="opacity:0.4;fill:none;stroke:url(#linearGradient3343);stroke-width:0.99525028;stroke-linecap:butt;stroke-linejoin:miter;stroke-miterlimit:4;stroke-opacity:1;stroke-dasharray:none;stroke-dashoffset:0;marker:none;visibility:visible;display:inline;overflow:visible" />
    <path
       d="m 12.09375,4.8750004 c -0.252594,-0.036114 -0.533828,0.022448 -0.71875,0.125 -0.184922,0.1025516 -0.218576,0.2163448 -0.21875,0.21875 2.49e-4,0.010415 2.49e-4,0.020835 0,0.03125 -0.0018,0.013785 -0.0044,0.02163 0,0.0625 0.498285,2.2137623 0.672914,4.3768116 1.125,6.4687496 C 12.511983,11.76957 12.640238,11.76171 12.875,11.75 12.83915,9.684106 12.68618,7.6086523 12.71875,5.4687504 c -0.0022,-0.03121 -0.0022,-0.06254 0,-0.09375 0.01983,-0.1289845 -0.08032,-0.4487075 -0.59375,-0.5 -0.01042,2.493e-4 -0.02083,2.493e-4 -0.03125,0 z M 13.125,14 c -0.426972,-0.04695 -0.861933,0.07495 -1.09375,0.28125 -0.01042,2.49e-4 -0.02083,2.49e-4 -0.03125,0 -0.273035,0.218471 -0.374267,0.497397 -0.34375,0.71875 9.98e-4,0.02082 9.98e-4,0.04168 0,0.0625 0.01458,0.22849 0.215114,0.49844 0.59375,0.6875 0.378636,0.18906 0.870154,0.227329 1.25,0.09375 0.01042,-2.49e-4 0.02083,-2.49e-4 0.03125,0 C 13.903523,15.739734 14.153507,15.505206 14.25,15.25 14.34649,14.994794 14.31583,14.727856 14.125,14.5 14.11423,14.48994 14.10381,14.47952 14.09375,14.46875 13.921286,14.234401 13.552518,14.047012 13.125,14 z"
       id="path3255"
       style="font-size:62.4582634px;font-style:normal;font-variant:normal;font-weight:normal;font-stretch:normal;text-align:start;line-height:125%;writing-mode:lr-tb;text-anchor:start;fill:white;fill-opacity:1;stroke:none;font-family:Georgia" />
  </g>
</svg>
